X:1
T:Norma Casta Diva
T:Norma Casta Diva
T:Vincenzo Bellini
T: Felice Romani.
T:by IMSLP - Scritto con MuseScore, un software libero e gratuito: http://musescore.org/it
T:by IMSLP - Scritto con MuseScore, un software libero e gratuito: http://musescore.org/it
T:by IMSLP - Scritto con MuseScore, un software libero e gratuito: http://musescore.org/it
C:Vincenzo Bellini
Z:Felice Romani.
Z:by IMSLP - Scritto con MuseScore, un software libero e gratuito: http://musescore.org/it
%%score 1 ( 2 3 ) { ( 4 7 ) | ( 5 6 ) }
L:1/8
Q:1/4=50
M:6/4
K:F
V:1 treble nm="Soprano"
V:2 treble nm="Soprano"
V:3 treble 
V:4 treble nm="Piano" snm="Pf."
V:7 treble 
V:5 bass 
V:6 bass 
V:1
"^Andante sostenuto" z12 | z12 | z12 | z12 | z12 | z12 | z12 | z12 | z12 | z12 | z12 | z12 | z12 | %13
w: |||||||||||||
 z12 |[Q:1/4=70] z12 |[Q:1/4=50] z12 | z12 | z12 | z12 | %19
w: ||||||
"^variante" c3 (=B/c/ d/c/e/d/) (d2 c) (B/c/ d/c/) (g/f/) | %20
w: a noi _ _ _ _ _ vol\- giil bel _ _ _ sem _|
 (f2 !breath!e) (g/a/ b/a/g/f/) (f/e/g/f/ e/d/) (d/c/ e/d/c/B/) | z12 | z12 | %23
w: bian\- te sen _ _ _ _ _ za _ _ _ _ _ un _ _ _ _ _|||
"^var." c3 (C/E/ G/c/e/d/) d2- d (E/G/ c/e/g/f/) | %24
w: Vol\- gi a _ _ _ _ noi _ ah _ _ _ _ _|
 (f2 !breath!e)!f! (g/a/ b/a/c'/b/ g/e/c/"^dim."^c/ e/d/ B/G/ E/!p!B/) (=c/B/) | z12 | z12 | z12 | %28
w: vol\- gi sen _ _ _ _ _ _ _ _ _ _ _ _ _ _ _ za *||||
 z12 | z12 | z12 | z12 | z12 | z12 | z12 | z12 | z12 | z12 | z12 | z12 | z12 | z12 | z12 | %43
w: |||||||||||||||
 z16 z8 z4[Q:1/4=80][Q:1/4=50] | z12 | z12 | z12 | z12 || %48
w: |||||
V:2
 z12 | z12 | z12 |"^dolce con maestà"!<(! (A6- A3/2!<)!B/4A/4 G/A/ c>B) (A/G/) | %4
w: |||Ca _ _ _ _ _ _ _ sta *|
 (G3- G>FA/G/) F z z F2- F/ G/ | A3 F2- F/G/ !turn!A3 d2 c | (d2- d/c/ !>!c BA) B3 z2 z | %7
w: Di _ _ _ _ va, ca,- * sta|Di\- va * * che i nar|gen _ _ _ _ _ ti|
 (B6- B3/2c/4B/4 A/B/ d>c) (B/A/) | (A3- A>cB/^F/) G z z G2- G/ A/ | %9
w: Que _ _ _ _ _ _ _ ste *|sa _ _ _ _ cre, que- * ste|
 B2 !breath!G d2 c (!>!dc) B (!>!B({cB)}A) ^G | !>!^G3 A z z z2 z!p! (A2 d) | %11
w: sa\- cre, que\- ste sa\- cre an\- ti- * che|pian\- te A noi|
{/e} (d^ce) B3"^cres." z ^GA (fe) d |{/e} (d^ce) B3 z2 z =c2- c/ c/ | %13
w: vol _ _ gi il * bel * sem\-|bian _ _ te A _ noi|
 d2 c d2 c =B2 !breath!c!pp! (B/c/) (d/e/f/g/) | %14
w: vol\- gi, a noi vol\- giil bel sem _ _ _ _|
 (a"^accell" !>!a2- a !>!a2- a !>!a2- !breath!a!<(! !>!a2!<)! | %15
w: bian _ _ _ _ _ _ _|
!f!"^a Tempo." b>a g/f/ g>fe/d/ e>)d (c/B/ c>B) (A/G/) | %16
w: _ _ _ _ _ _ _ _ _ te, il * bel * sem\- *|
 (!>!d>c) (=B/!breath!c/) (!>!e>f) (c/A/) (!>!A>G) (^F/G/) (!>!=B>"^var."(c)(!fermata!_B/) G/) | %17
w: bian- * te, * sen- * za * nu- * be e sen- * * za|
 F2 z2 z2 z2 z4 | z12 | c3- c3/2(^d/4e/4f/4e/4=d/4e/4) c3- c3/2(^f/4g/4a/4g/4f/4g/4 | %20
w: vel||sen _ _ _ _ _ _ _ _ _ _ _ _ _ _ _|
 e3-) e!breath!z/(g/4a/4b/4a/4g/4f/4 (e3/2)(e/4)f/4 g/4f/4e/4d/4 (c3/2)(c/4)d/4 e/4d/4c/4B/4) | %21
w: _ _ \- _ _ _ _ _ _ _ _ _ _ _ _ _ _ _ za _ _ _|
 A2 z z2 z z6 | c3 z2 z z6 | c3- c3/2(^d/4e/4f/4e/4d/4e/4) c3- c3/2^f/4g/4a/4g/4f/4g/4 | %24
w: vel|si|sen _ _ _ _ _ _ _ _ _ _ _ _ _ _ _|
 e3- ez/(b/4a/4_a/4g/4_g/4f/4 e3/2=g/4f/4 e/4_e/4d/4_d/4 c3/2=e/4=d/4) (_d/4c/4=B/4_B/4) | %25
w: _ _ \- _ _ _ _ _ _ _ _ _ _ _ _ _ _ _ za * * *|
 A2 z z2 z z6 | z12 | z12 |!<(! (A6- A3/2B/4!<)!A/4 G/A/ c>B) A/G/ | %29
w: vel|||Tem _ _ _ _ _ _ _ pra o|
 (G3- G>FA/G/) F z z F2- F/ G/ | A2 z!<(! F2 F/G/ (!turn!A3!<)! d2) c | %31
w: Di _ _ _ _ va, tem- * pra|tu de'- * * co- * riar\-|
 (d2- d/c/ !>!c !>!B!>!A !>!B3) z2 z |!p!!<(! (B6- B3/2c/4B/4 A/!<)!B/ d>c) B/A/ | %33
w: den _ _ _ _ _ ti|Tem _ _ _ _ _ _ _ pra an\-|
 (!>!A3- A>cB/^F/) G z z G2- G/ A/ |"^marcato." B2 G d2 c (dc) B!f! (B({cB)} A) z/ ^G/ | %35
w: co _ _ _ _ ra tem- pra an\-|co\- ra tem\- praan cor * lo ze\- lo au\-|
 ^G A z2 z2 z2 z!p!"^dolce." A2 d |{/e} (d^ce) B3 z (^GA) (fe) d | %37
w: da\- ce Spar\- giin|ter- * * ra ah! * quel\- * la|
{/e} (d^ce) B3 z2 z!<(! =c2- c/ c/!<)! | %38
w: pa _ _ ce spar- * giin|
!>(! d2 c!>)!"^dolcissimo" (f/e/d/c/ =B/c/) (d2 !breath!c) (B/c/ d/e/f/g/) | %39
w: ter\- ra spar _ _ _ giin * ter\- ra quel- * la _ _ _|
!pp!!<(! a a2- a a2- a a2- a a2!<)! |!ff! (b>a g/f/) (!>!g>fe/d/) e>d (c/B/) (c>B) (A/G/) | %41
w: pa _ _ _ _ _ _ _|_ _ _ _ _ _ _ _ _ _ ce * che * re- *|
"^var." (d>c) (=B/c/) (e>f) (c/A/) (A>!breath!G)!p! (^F/G/) (^c>d) (_B/G/) | %42
w: gnar, * re- * gnar * tu * fai _ tu * fai _ nel *|
 F2 z2 z z!<(! f6-!<)! | %43
w: ciel nel|
!>(! f6 e2 z z2 c3- (c/4=B/4c/4d/4e/4d/4e/4f/4g/4f/4g/4a/4 _b/a/_a/g/_g/f/e/_e/d/_d/c/_c/B/=A/_A/=G/_G/F/) E z!>)! | %44
w: * ciel ah _ _ _ _ _ _ _ _ _ _ _ _ _ _ _ _ _ _ _ _ _ _ _ _ _ _ _ _ _ _ si|
 z3 (=B c ^c) c2 z (!fermata!Te3{!fermata!d)!fermata!e} |!<(!!>(! f12-!<)!!>)! | f z2 z2 z z6 | %47
w: re\- gnar tu fai nel|ciel|_|
 !fermata!z12 || %48
w: |
V:3
 x12 | x12 | x12 | x11 A/ G/ | x12 | x5 F/ G/ x6 | x12 | x12 | x12 | x12 | x12 | x12 | x12 | x12 | %14
 x12 | x12 | x12 | x12 | x12 | x12 | x12 | x12 | x12 | x12 | x12 | x12 | x12 | x12 | x12 | x12 | %30
 x5 F/ G/ x6 | x12 | x12 | x12 | x9 B A x | x12 | x12 | x12 | x12 | x12 | x12 | x12 | x12 | x28 | %44
 x12 | x12 | x12 | x12 || %48
V:4
{/e'} ([dd'] [^c^c'] [ee'] [Bb]3) ([=B=b]3 [=c=c']2 [cc']) | %1
!<(! ([cc']2 [^c^c'] [dd'] [Ba] [Gb]!<)!!>(! [=c=c'] [Bb] [^F^f]!>)! [Gg]2) !fermata![^G^g] | %2
 (A, C F A F C A, C F A F C) | A, C F A F C A, C E G E C | z12 | z12 | z12 | z12 | z12 | z12 | %10
 z12 | z12 | z12 | z12 | z12 | z12 | z12 | %17
 F z z [FA]2- [FA]/ [FA]/ [Ac]2- [Ac]/ [FA]/ [FA]2- [FA]/ [FA]/ | %18
 [Ac]2- [Ac]/ [FA]/ [EG]2- [EG]/ [FA]/ [GB]2- [GB]/ [FA]/ [EG]2- [EG]/ [DF]/ | z12 | z12 | %21
 [FA] z z [FA]2- [FA]/ [FA]/ [Ac]2- [Ac]/ [FA]/ [FA]2- [FA]/ [FA]/ | %22
 [Ac]2- [Ac]/ [FA]/ [EG]2- [EG]/ [FA]/ [Ac]2- [Ac]/ [FA]/ [EG]2- [EG]/ [DF]/ | z12 | z12 | %25
 [FA] z z z2 z [G-df-]6 | [G_df-]6 [cf]3{/f} e d e | f2 (F A F C A,) C F A F C | z12 | z12 | z12 | %31
 z12 | z12 | z12 | z12 | z12 | z12 | z12 | z12 | z12 | z12 | z12 | z12 | z16 z8 z4 | z12 | z12 | %46
 z12 | z12 || %48
V:5
 [E,,E,] G, B, ^C B, G, z G, =B, C _B, G, | !fermata!z12 | [F,,F,] z z2 z8 | %3
 [F,,F,] z z z2 z [C,,C,] z z z2 z | z12 | z12 | z12 | z12 | z12 | z12 | z12 | z12 | z12 | z12 | %14
 z12 | z12 | z12 | %17
 [F,,F,] [F,A,C] [F,A,C] [F,A,C] [F,A,C] [F,A,C] [F,,F,] [F,A,C] [F,A,C] [F,A,C] [F,A,C] [F,A,C] | %18
 [F,,F,] [F,A,C] [F,A,C] [F,A,C] [F,A,C] [F,A,C] [F,,F,] [F,A,C] [F,A,C] [F,A,C] [F,A,C] [F,A,C] | %19
 z12 | z12 | %21
 [F,,F,] [F,A,C] [F,A,C] [F,A,C] [F,A,C] [F,A,C] [F,,F,] [F,A,C] [F,A,C] [F,A,C] [F,A,C] [F,A,C] | %22
 [F,,F,] [F,A,C] [F,A,C] [F,A,C] [F,A,C] [F,A,C] [F,,F,] [F,A,C] [F,A,C] [F,A,C] [F,A,C] [F,A,C] | %23
 z12 | z12 | ([F,,F,]A,CFCA,) (B,, D, G, =B, G, D,) | (_B,, _D, G, B, G, D,) (C, G, B, C B, G,) | %27
 [F,,F,] z z2 z8 | z12 | z12 | z12 | z12 | z12 | z12 | z12 | z12 | z12 | z12 | z12 | z12 | z12 | %41
 z12 | z12 | z16 z8 z4 | z12 | z12 | z12 | z12 || %48
V:6
 x6 E,3 E,3 | x12 | x12 | x12 | x12 | x12 | x12 | x12 | x12 | x12 | x12 | x12 | x12 | x12 | x12 | %15
 x12 | x12 | x12 | x12 | x12 | x12 | x12 | x12 | x12 | x12 | x6 B,,6 | B,,6 C,6 | x12 | x12 | x12 | %30
 x12 | x12 | x12 | x12 | x12 | x12 | x12 | x12 | x12 | x12 | x12 | x12 | x12 | x28 | x12 | x12 | %46
 x12 | x12 || %48
V:7
 x12 | x12 | x12 | x12 | x12 | x12 | x12 | x12 | x12 | x12 | x12 | x12 | x12 | x12 | x12 | x12 | %16
 x12 | x12 | x12 | x12 | x12 | x12 | x12 | x12 | x12 | x12 | G6 G3 [GB]3 | [FA] C x10 | x12 | x12 | %30
 x12 | x12 | x12 | x12 | x12 | x12 | x12 | x12 | x12 | x12 | x12 | x12 | x12 | x28 | x12 | x12 | %46
 x12 | x12 || %48

